X:300
T: Echoes of Killarney
S: "Roche Collection of Traditional Irish Music" [II/22/244]
L: 1/8
M: 6/8
R: jig
K: Edor
G3 G2A | B2e e2e | d2B BAB | d2B BAB |
G3 G2A | B2e e2e | d2B ABA |1 G3-GED :|2 G3-G2 B/d/ ||
g2f e2d | B2e e2e | d2B BAB | d2B BAB |
g2f e2d | B2e e2e | d2B ABA |1 G3-GBd :|2 G3-GED ||
